X:1
T:Gammellappen
R:Vals
O:Västerbotten
Z:Anton Teljebäck
M:3/4
L:1/4
K:Dm
|A | d d d | c2 A | d d f | e2 e | f f f | e2 e | d d c | d2 A/A/ |
| d d d/d/ | c c A | d d f | e2 e | f/f/ f f | d/d/ d d | c c c | d2 ||
|: d/f/ | a a b/a/ | g3/ f/e/f/ | g g a/g/ |f3/ e/d/e/ | f f g/f/ | e3/ d/c/d/ | e e/ f/e/c/ | d2 :| 

